source/images/icons/plus-1.svg

<svg width="16" height="17" viewBox="0 0 16 17" fill="none" xmlns="http://www.w3.org/2000/svg">
<path d="M16 7.78699H9V0.786987H7V7.78699H0V9.78699H7V16.787H9V9.78699H16V7.78699Z" fill="black"/>
</svg>

<svg width="16" height="17" viewBox="0 0 16 17" fill="none" xmlns="http://www.w3.org/2000/svg"><g clip-path="url(#clip0_11423_1731)"><path d="M16 7.79H9v-7H7v7H0v2h7v7h2v-7h7v-2z" fill="#000"/></g><defs><clipPath id="clip0_11423_1731"><path fill="#fff" transform="translate(0 .79)" d="M0 0h16v16H0z"/></clipPath></defs></svg>
